X: 651
T: Entarisi Ala Benziyor
C: Muzaffer Sarısözen
O: Turkey
F: http://compmusic.upf.edu/node/140
N: hicaz--turku--raksaksagi--entarisi_ala--istanbul
N: makam= hicaz
N: form= turku
N: usul= raksaksagi = 9/8
M: 9/8
L: 1/16
K: C _7/8B ^f ^c 
Q: 1/4=228
%%MIDI tuningsystem comma53
d2e2 =f2e2 d2c4c4 | A2 B2d2 c2B2 A4 e4  | \
w:  ARANAĞME  |   | 
d2e2 =f2e2 d2c4c4 | 
w:   | 
A2 B2d2 c2B2 A4 z4  | d2e2 =f2e2 d2c4c4 | \
w:   |  ARANAĞME  | 
A2 B2d2 c2B2 A4 e4  | 
w:   | 
d2e2 =f2e2 d2c4c4 | A2 B2d2 c2B2 A4 z4  | \
w:   |   | 
A4 d4 c2d4z4 | c2 d2e4=f2 e2d2 c2B2  | 
w:  En ta ri si   |  a la  ben zi yor    | 
A4 d4 c2d4z4 | c2 d2e4=f2 e2d2 c2B2  | \
w:  En ta ri si   |  a la  ben zi yor    | 
e2d2 c4 A2B6 A2 | e2 d2c3BBA A4 z4  | 
w:  Şef *  ta li si   |  ba la  ben *  zi *  yor    | 
e2d2 c4 A2B6 A2 | e2 d2c3BBA A4 z4  | \
w:  Şef *  ta li si   |  ba la  ben *  zi *  yor    | 
A4 d4 c2d4z4 | c2 d2e4=f2 e2d2 c2B2  | 
w:  Be nim  yâ rim   |  sa na  ben zi yor    | 
A4 d4 c2d4z4 | c2 d2e4=f2 e2d2 c2B2  | \
w:  Be nim  yâ rim   |  sa na  ben zi yor    | 
e2d2 c4 A2B4B2 A2 | e2 d2c3BBA A4 z4  | 
w:  O la maz  ne  ça re   |  o  ni şan *  lı *  dır    | 
e2d2 c4 B2B4B2 A2 | e2 d2c3BBA A4 z4  | \
w:  Kay *  tan  bı yık lı   |  de li kan *  lı *  dır    | 
d2e2 =f2e2 d2c4c4 | 
w:  Şe ker li  mi sin  vay  vay    | 
A2 B2d2 c2B2 A4 e4  | d2e2 =f2e2 d2c4c4 | \
w:  Kay mak lı  mı sın  vay  vay    |  Şe ker li  mi sin  vay  vay    | 
A2 B2d2 c2B2 A4 z4  | 
w:  Kay mak lı  mı sın  vay    | 
d2e2 =f2e2 d2c4c4 | A2 B2d2 c2B2 A4 e4  | \
w:  Şe ker li  mi sin  vay  vay    |  Kay mak lı  mı sın  vay  vay    | 
d2e2 =f2e2 d2c4c4 | 
w:  Şe ker li  mi sin  vay  vay    | 
A2 B2d2 c2B2 A4 z4  | d2e2 =f2e2 d2c4c4 | \
w:  Kay mak lı  mı sın  vay    |  ARANAĞME  | 
A2 B2d2 c2B2 A4 e4  | 
w:   | 
d2e2 =f2e2 d2c4c4 | A2 B2d2 c2B2 A4 z4  | \
w:   |   | 
d2e2 =f2e2 d2c4c4 | 
w:  ARANAĞME  | 
A2 B2d2 c2B2 A4 e4  | d2e2 =f2e2 d2c4c4 | \
w:   |   | 
A2 B2d2 c2B2 A4 z4  | 
w:   | 
A4 d4 c2d4z4 | c2 d2e4=f2 e2d2 c2B2  | \
w:  En ta ri si   |  a la  ben zi yor    | 
A4 d4 c2d4z4 | c2 d2e4=f2 e2d2 c2B2  | 
w:  En ta ri si   |  a la  ben zi yor    | 
e2d2 c4 A2B6 A2 | e2 d2c3BBA A4 z4  | \
w:  Şef *  ta li si   |  ba la  ben *  zi *  yor    | 
e2d2 c4 A2B6 A2 | e2 d2c3BBA A4 z4  | 
w:  Şef *  ta li si   |  ba la  ben *  zi *  yor    | 
A4 d4 c2d4z4 | c2 d2e4=f2 e2d2 c2B2  | \
w:  Be nim  yâ rim   |  sa na  ben zi yor    | 
A4 d4 c2d4z4 | c2 d2e4=f2 e2d2 c2B2  | 
w:  Be nim  yâ rim   |  sa na  ben zi yor    | 
e2d2 c4 A2B4B2 A2 | e2 d2c3BBA A4 z4  | \
w:  O la maz  ne  ça re   |  o  ni şan *  lı *  dır    | 
e2d2 c4 B2B4B2 A2 | 
w:  Kay *  tan  bı yık lı   | 
e2 d2c3BBA A4 z4  | d2e2 =f2e2 d2c4c4 | \
w:  de li kan *  lı *  dır    |  Şe ker li  mi sin  vay  vay    | 
A2 B2d2 c2B2 A4 e4  | 
w:  Kay mak lı  mı sın  vay  vay    | 
d2e2 =f2e2 d2c4c4 | A2 B2d2 c2B2 A4 z4  | \
w:  Şe ker li  mi sin  vay  vay    |  Kay mak lı  mı sın  vay    | 
d2e2 =f2e2 d2c4c4 | 
w:  Şe ker li  mi sin  vay  vay    | 
A2 B2d2 c2B2 A4 e4  | d2e2 =f2e2 d2c4c4 | \
w:  Kay mak lı  mı sın  vay  vay    |  Şe ker li  mi sin  vay  vay    | 
A2 B2d2 c2B2 A4 z4  | 
w:  Kay mak lı  mı sın  vay    | 
|


